X:410
T: Thadelo's #3
S: "Johnny O'Leary of Sliabh Luachra" (#246)
Z: B.Black
L: 1/8
M: 4/4
R: hornpipe
K: D
A2-AB AFDE|F2 FE F2 FG|A2 AB AFDF|(3GAG EzE2-EF|
GzGF GFEF|GAGF G2 B2|A2 AB AGFE|D8 :|
f4 e2 de|d2 A2 A2 da|(3B=c^c BA (3B=c^c dB|c2 A2 A4|
f2 gf e2 fe|d2 A2 A2 dA|(3B=c^c BA (3B=c^c dB|e2 d2 d4 :|
